z_dist/img/logo.svg

<svg width="122" height="48" viewBox="0 0 122 48" fill="none" xmlns="http://www.w3.org/2000/svg">
<path d="M0.614936 35.12H2.93494L4.27894 44.112H4.51894L6.47094 35.12H9.03094L10.9829 44.112H11.2229L12.5669 35.12H14.8869L12.8069 46H9.46294L7.75094 37.728L6.03894 46H2.69494L0.614936 35.12ZM28.1211 46L30.5691 35.12H34.7611L37.2091 46H35.0011L34.5691 44.032H30.7611L30.3291 46H28.1211ZM32.2811 36.944L31.1771 42.112H34.1531L33.0491 36.944H32.2811ZM57.8101 46H51.6181V35.12H53.8261V44.048H57.8101V46ZM78.3169 46H72.1249V35.12H74.3329V44.048H78.3169V46ZM92.6318 46V35.12H99.6718V37.04H94.8398V39.584H98.7118V41.472H94.8398V44.08H99.6718V46H92.6318ZM113.475 37.072V35.12H121.475V37.072H118.595V46H116.387V37.072H113.475Z" fill="white"/>
<rect x="118.5" y="0.5" width="3" height="23" fill="white" stroke="white"/>
<path d="M100 20.1825L93 7.73805V3.81751L100 16.262V20.1825Z" fill="white" stroke="white" stroke-width="2"/>
<path d="M113 3.81751L106 16.262V20.1825L113 7.73805V3.81751Z" fill="white" stroke="white" stroke-width="2"/>
<rect x="84.5" y="0.5" width="3" height="23" fill="white" stroke="white"/>
<rect x="56.5" y="0.5" width="3" height="23" fill="white" stroke="white"/>
<rect x="64.5" y="23.5" width="3" height="11" transform="rotate(-90 64.5 23.5)" fill="white" stroke="white"/>
<rect x="64.5" y="13.5" width="3" height="11" transform="rotate(-90 64.5 13.5)" fill="white" stroke="white"/>
<rect x="64.5" y="3.5" width="3" height="11" transform="rotate(-90 64.5 3.5)" fill="white" stroke="white"/>
<rect x="28.5" y="0.5" width="3" height="23" fill="white" stroke="white"/>
<rect x="36.5" y="23.5" width="3" height="11" transform="rotate(-90 36.5 23.5)" fill="white" stroke="white"/>
<rect x="0.5" y="0.5" width="3" height="23" fill="white" stroke="white"/>
<rect x="8.5" y="3.5" width="3" height="11" transform="rotate(-90 8.5 3.5)" fill="white" stroke="white"/>
<rect x="8.5" y="13.5" width="3" height="11" transform="rotate(-90 8.5 13.5)" fill="white" stroke="white"/>
</svg>

<svg width="122" height="48" fill="none" xmlns="http://www.w3.org/2000/svg"><path d="M.615 35.12h2.32l1.344 8.992h.24L6.47 35.12h2.56l1.952 8.992h.24l1.344-8.992h2.32L12.807 46H9.463L7.75 37.728 6.039 46H2.695L.615 35.12zM28.12 46l2.448-10.88h4.192L37.21 46h-2.208l-.432-1.968h-3.808L30.33 46h-2.208zm4.16-9.056l-1.104 5.168h2.976l-1.104-5.168h-.768zM57.811 46h-6.193V35.12h2.208v8.928h3.984V46zm20.506 0h-6.192V35.12h2.208v8.928h3.984V46zm14.315 0V35.12h7.04v1.92H94.84v2.544h3.872v1.888H94.84v2.608h4.832V46h-7.04zm20.843-8.928V35.12h8v1.952h-2.88V46h-2.208v-8.928h-2.912z" fill="#fff"/><path fill="#fff" stroke="#fff" d="M118.5.5h3v23h-3z"/><path d="M100 20.183L93 7.738v-3.92l7 12.444v3.92zm13-16.365l-7 12.444v3.92l7-12.444v-3.92z" fill="#fff" stroke="#fff" stroke-width="2"/><path fill="#fff" stroke="#fff" d="M84.5.5h3v23h-3zm-28 0h3v23h-3zm8 23v-3h11v3zm0-10v-3h11v3zm0-10v-3h11v3zm-36-3h3v23h-3zm8 23v-3h11v3zM.5.5h3v23h-3zm8 3v-3h11v3zm0 10v-3h11v3z"/></svg>
